X:1
T:Dance of the Swans, VII. Coda
T:Dance of the Swans, VII. Coda
T:Swan Lake, Piano Arrangement for 3 hands
T:Hinci
C:Hinci
%%score { ( 1 4 ) | ( 2 6 ) | ( 3 5 ) }
L:1/8
Q:1/4=178
M:6/8
K:E
V:1 treble nm="Piano" snm="Pno."
V:4 treble 
V:2 bass 
V:6 bass 
V:3 bass 
V:5 bass 
V:1
"^Allegro vivace." z6 | z2 z z2 [B,E] |:!mp! [G,B,F]2 [B,E] [G,B,]2 [GBe] | [GBf]2 [GBe] [GB]2 E | %4
 (AGF) E z a | (gf^e) f z [CF] | !>![dd']3 !>![cc']3 | !>![Bb]3 !>![Aa]3 | !>!g3 !>!f3 | %9
 !>![e-e']B GEB,[G,B,E] | [G,B,F]2 [B,E] [G,B,]2 [GBe] | [GBf]2 [GBe] [GB]2 E | (AGF) E z a | %13
 (gf^e) f z [CF] | !>![dd']3 !>![cc']3 | !>![Bb]3 !>![Aa]3 |!<(! !>!g3 !>!f3!<)! ||1 %17
!mf! [ee'][dd'][cc'] [Bb][Gg] z :|2 e!ff![dd'][cc'] [Begb]2 [cc'] || %19
 [GBeg][dd'][cc'] [Begb]2 [cc'] | [GBeg][Ff][Gg] [Begb][Ff][Gg] | [Begb][Ff][Gg] [Begb][Ff][Gg] | %22
 [cegc'][Bb][Aa] [Gceg]2 [Aa] | [EGce][Bb][Aa] [Gceg]2 [Aa] | [ee'][dd'][ee'] [gg'][dd'][ee'] | %25
 [gg'][dd'][ee'] [gg'][dd'][ee'] | [cfc'][^E^e][Ff] [Gg][Aa][Bb] | %27
 [cc'][dd'][^e^e'] [fc'f'][gg'][aa'] | !//-![gc']3 g'3 | %29
 !//-![^^fc']3/2 [d'^^f']3/2 !//-!^f3/2 [d'^f']3/2 | [ec'e'][dd'][ee'] [gc'e'g'][dd'][ee'] | %31
 [gc'e'g'][dd'][ee'] [gc'e'g'][dd'][ee'] | [gbe'g'][ff'][ee'] [ee'][dd'][cc'] | %33
 [Bfb] z z [dabd'] z z | e[dd'][cc'] [Begb]2 [cc'] | [GBeg][dd'][cc'] [Begb]2 [cc'] | %36
 [GBeg][Ff][Gg] [Begb][Ff][Gg] | [Begb][Ff][Gg] [Begb][Ff][Gg] | [cegc'][Bb][Aa] [Gceg]2 [Aa] | %39
 [EGce][Bb][Aa] [Gceg]2 [Aa] | [ee'][dd'][ee'] [gg'][dd'][ee'] | [gg'][dd'][ee'] [gg'][dd'][ee'] | %42
 [cfc'][^E^e][Ff] [Gg][Aa][Bb] | [cc'][dd'][^e^e'] [fc'f'][gg'][aa'] | !//-![gc']3 g'3 | %45
 !//-![^^fc']3/2 [d'^^f']3/2 !//-!^f3/2 [d'^f']3/2 | [ec'e'][dd'][ee'] [gc'e'g'][dd'][ee'] | %47
 [gc'e'g'][dd'][ee'] [gc'e'g'][dd'][ee'] | [gbe'g'][ff'][ee'] [ee'][dd'][cc'] | %49
 [Bfb] z z [dabd'] z z |: !//-![eg]3 [be']3 | !//-![fa]3 [=d'f']3 | %52
!f! ([gc'^e'g'][aa'][gc'e'g'] [aa'][gg'][ac'd'a']) | ([gg'][aa'][gc'g'] [aa'][gg'][ac'a']) | %54
 ([gg'][aa'][gc'g'] [ff'][gg'][fbf']) | ([ee'][ff'][ec'e'] [dd'][ee'][dbd']) | %56
 ([cc'][dd'][cc'] [d^egd'][cc'][dd']) | ([cfac'][dd'][cc'] [dfad'][cc'][dd']) :| %58
 [egbd'e'][gg'][aa'] [bb'] z z | [cc'][Bb][cc'] [dd'] z z | [ee'][Gg][Aa] [Bb] z z | %61
 [cc'][Bb][cc'] [dd'] z z |!mf!!<(! ([egbe'][ff']).[dfbd'] ([egbe'][ff']).[dfbd'] | %63
 ([egbe'][ff']).[dfbd'] ([egbe'][ff']).[dfbd'] | ([egbe'][ff']).[dfbd'] ([egbe'][ff']).[dfbd'] | %65
 ([egbe'][ff']).[dfbd'] ([egbe'][ff']).[dfbd']!<)! |!ff! [egbe'] z z [EBe] z z | %67
 [GBeg] z z [Begb] z z | [egbe'] z z [EBe] z z | [GBeg] z z [Begb] z z | [egbe'] z z [egbe'] z z | %71
 [egbe'] z z [egbe'] z z | !>![B,E]6- | [B,E]6 |] %74
V:2
 [E,,E,]2 E, [E,,E,]2 E, | [E,,E,]2 E, [E,,E,]2 [E,G,] |: [E,,E,]2 [E,G,] [E,,E,]2 E, | %3
 [E,,E,]2 E, [E,,E,]2 E, | [E,,E,]2 [E,G,] [E,,E,]2 E, | [E,,E,]2 E, [E,,E,]2 [E,A,] | %6
 [E,,E,]2 [E,A,] [E,,E,]2 E, | [E,,E,]2 E, [E,,D,E,]2 [D,E,F,] | [E,,E,]2 E, [E,,E,]2 E, | %9
 [E,,E,]2 E, [E,,E,]2 E, | [E,,E,]2 [E,G,] [E,,E,]2 E, | [E,,E,]2 E, [E,,E,]2 E, | %12
 [E,,E,]2 [E,G,] [E,,E,]2 E, | [E,,E,]2 E, [E,,E,]2 [E,A,] | [E,,E,]2 [E,A,] [E,,E,]2 E, | %15
 [E,,E,]2 E, [E,,D,E,]2 [D,E,F,] | [E,,E,]2 E, [E,,E,]2 E, ||1 [E,,E,]2 E, [E,,E,]2 E, :|2 %18
 [E,,E,]2 z [E,,B,,E,] z z || [E,,B,,E,] z z [E,,B,,E,] z z | [E,,B,,E,] z z [E,,B,,E,] z z | %21
 [E,,B,,E,] z z [E,,B,,E,] z z | C,2 D, [C,E,]2 F, | [C,G,]E,^B, [C,C]EF | %24
 [C,,C,] z z [C,,C,] z z | [C,,C,] z z [C,,C,] z z | [A,,A,] z z z2 z | [G,,G,]3 [F,,F,]3 | %28
 [E,,E,][E,,E,][F,,F,] [G,,G,][F,,F,][G,,G,] | [^A,,^A,][G,,G,][A,,A,] [^B,,^B,][A,,A,][B,,B,] | %30
 [C,C] z z [A,,A,] z z | [A,,A,] z z [A,,A,] z z | [B,,B,] z z B,, z z | %33
 [B,,B,D]CB, [B,,,B,,]G,F, | [E,,E,]2 z [E,,B,,E,] z z | [E,,B,,E,] z z [E,,B,,E,] z z | %36
 [E,,B,,E,] z z [E,,B,,E,] z z | [E,,B,,E,] z z [E,,B,,E,] z z | C,2 D, [C,E,]2 F, | %39
 [C,G,]E,^B, [C,C]EF | [C,,C,] z z [C,,C,] z z | [C,,C,] z z [C,,C,] z z | [A,,A,] z z z2 z | %43
 [G,,G,]3 [F,,F,]3 | [E,,E,][E,,E,][F,,F,] [G,,G,][F,,F,][G,,G,] | %45
 [^A,,^A,][G,,G,][A,,A,] [^B,,^B,][A,,A,][B,,B,] | [C,C] z z [A,,A,] z z | %47
 [A,,A,] z z [A,,A,] z z | [B,,B,] z z B,, z z | [B,,B,D]CB, [B,,,B,,]G,F, |: %50
 [E,,E,]2 [B,,,B,,] [G,,G,][F,,F,][E,,E,] | [=D,,=D,]2 A,, [F,,F,][E,,E,][D,,D,] | %52
 [C,,C,] z [C,,C,]- [C,,C,]2 [D,,D,]- | [D,,D,]2 [E,,E,]- [E,,E,]2 [^E,,^E,]- | %54
 [E,,E,]2 [F,,F,]- [F,,F,]2 [G,,G,]- | [G,,G,]2 [^A,,^A,]- [A,,A,]2 [B,,B,] | %56
 [B,,B,]2 z [B,,,B,,]2 z | [B,,,B,,]2 z [B,,,B,,]2 z :| [E,,E,]2 z [=D,,=D,]2 z | %59
 [C,,C,]2 z [B,,,B,,]2 z | [E,,E,]2 z [=D,,=D,]2 z | [C,,C,]2 z [B,,,B,,]2 z | %62
 [E,,E,] z [B,,,B,,] [E,,E,] z [B,,,B,,] | [E,,E,] z [B,,,B,,] [E,,E,] z [B,,,B,,] | %64
 [E,,E,] z [B,,,B,,] [E,,E,] z [B,,,B,,] | [E,,E,] z [B,,,B,,] [E,,E,] z [B,,,B,,] | %66
 [E,,E,]2 z E,2 z | B,,2 z [G,,G,]2 z | [E,,E,]2 z E,2 z | B,,2 z [G,,G,]2 z | %70
 [E,,E,]2 z [E,,E,]2 z | [E,,E,]2 z [E,,E,]2 z | !//-!E,,3 E,3 | !//-!E,,3 E,3 |] %74
V:3
 z6 | z6 |: z6 | z6 | z6 | z6 |[K:treble] [A,B,G]2 [A,B,F] [A,C]2 [A,D] | [B,D]2 [B,D] F,2 z | %8
 [E,B,][E,B,][E,B,] [F,B,][F,B,][F,B,] | [G,B,E]3- [G,B,E]2 z | z6 | z6 | z6 | z6 | %14
 [A,B,G]2 [A,B,F] [A,C]2 [A,D] | [B,D]2 [B,D] F,2 z | [E,B,][E,B,][E,B,] [F,B,][F,B,][F,B,] ||1 %17
 [EGB][DGB][CGB] [B,EG][EG][EGB] :|2 [EGB] z z [B,E] z z || [B,E] z z [B,E] z z | %20
 [B,E] z z [B,E] z z | [B,E] z z [B,E] z z | [B,E] z z [B,E] z z | [B,G] z z [B,E] z z | %24
 [B,EG] z z [B,E] z z | [B,EG] z z [B,E] z z | [A,CF] z z z2 z | [B,C]3 [A,C]3 | %28
 [G,G]2 [F,F] [E,E]3 | [CD]3 [DG]3 | [CEG] z z [A,CE] z z | [A,CE] z z [A,CE] z z | %32
 [B,E] z z z2 z | [B,F] z z [B,F] z z | [EGB] z z [B,E] z z | [B,E] z z [B,E] z z | %36
 [B,E] z z [B,E] z z | [B,E] z z [B,E] z z | [B,E] z z [B,E] z z | [B,G] z z [B,E] z z | %40
 [B,EG] z z [B,E] z z | [B,EG] z z [B,E] z z | [A,CF] z z z2 z | [B,C]3 [A,C]3 | %44
 [G,G]2 [F,F] [E,E]3 | [CD]3 [DG]3 | [CEG] z z [A,CE] z z | [A,CE] z z [A,CE] z z | %48
 [B,E] z z z2 z | [B,F] z z [B,F] z z |: z6 | z6 | [Gc^e] z [^Ece]- [Ece]2 [Dc^d]- | %53
 [Dcd]2 [Cc]- [Cc]2 [Bcb]- | [Bcb]2 [Aca]- [Aca]2 [GBg]- | [GBg]2 [^^Fc^^f]- [Fcf]2 [GBg]- | %56
 [GBg]2 z [G,^E]2 z | [A,F]2 z [A,F]2 z :| [B,EB]2 z [B,EB]2 z | [G,CEG]2 z [B,DFB]2 z | %60
 [B,EB]2 z [B,EB]2 z | [G,CEG]2 z [B,DFB]2 z | [G,EG] z [F,DG] [G,EG] z [F,DG] | %63
 [G,EG] z [F,DG] [G,EG] z [F,DG] | [G,EG] z [F,DG] [G,EG] z [F,DG] | %65
 [G,EG] z [F,DG] [G,EG] z [F,DG] | E z z E z z | [EGB] z z [EG] z z | E z z E z z | %69
 [EG] z z [EGB] z z | E z z E z z | E z z E z z | z6 | z6 |] %74
V:4
 x6 | x6 |: x6 | x6 | [B,E]2 B, [G,B,]2 [Be] | [Ac]2 [Ac] [Ac] z z | z2 z z2 f | g2 f B2 B | %8
 c'bc' d'c'd' | z2 e3 z | x6 | x6 | [B,E]2 B, [G,B,]2 [Be] | [Ac]2 [Ac] [Ac] z z | z2 z z2 f | %15
 g2 f B2 B | c'bc' d'c'd' ||1 x6 :|2 x6 || x6 | x6 | x6 | x6 | x6 | x6 | x6 | x6 | x6 | x6 | x6 | %30
 x6 | x6 | x6 | x6 | x6 | x6 | x6 | x6 | x6 | x6 | x6 | x6 | x6 | x6 | x6 | x6 | x6 | x6 | x6 | %49
 x6 |: x6 | x6 | x6 | x6 | x6 | x6 | x6 | x6 :| x6 | x6 | x6 | x6 | x6 | x6 | x6 | x6 | x6 | x6 | %68
 x6 | x6 | x6 | x6 | x6 | x6 |] %74
V:5
 x6 | x6 |: x6 | x6 | x6 | x6 |[K:treble] x6 | x6 | !>!G3 !>!F3 | x6 | x6 | x6 | x6 | x6 | x6 | %15
 x6 | !>!G3 !>!F3 ||1 x6 :|2 x6 || x6 | x6 | x6 | x6 | x6 | x6 | x6 | x6 | x3 AGF | x6 | x6 | x6 | %31
 x6 | x6 | x6 | x6 | x6 | x6 | x6 | x6 | x6 | x6 | x6 | x6 | x3 AGF | x6 | x6 | x6 | x6 | x6 | %49
 x6 |: x6 | x6 | x6 | x6 | x6 | x6 | x6 | x6 :| x6 | x6 | x6 | x6 | x6 | x6 | x6 | x6 | x6 | x6 | %68
 x6 | x6 | x6 | x6 | x6 | x6 |] %74
V:6
 x6 | x6 |: x6 | x6 | x6 | x6 | x6 | x6 | x6 | x6 | x6 | x6 | x6 | x6 | x6 | x6 | x6 ||1 x6 :|2 %18
 x6 || x6 | x6 | x6 | x6 | x6 | x6 | x6 | x6 | x6 | x6 | x6 | x6 | x6 | E,2 F, G,2 ^A, | x6 | x6 | %35
 x6 | x6 | x6 | x6 | x6 | x6 | x6 | x6 | x6 | x6 | x6 | x6 | x6 | E,2 F, G,2 ^A, | x6 |: x6 | x6 | %52
 x6 | x6 | x6 | x6 | x6 | x6 :| x6 | x6 | x6 | x6 | x6 | x6 | x6 | x6 | x6 | x6 | x6 | x6 | x6 | %71
 x6 | x6 | x6 |] %74

